X: 18
T: The Lads and the Lasses
R: jig
M: 6/8
L: 1/8
Z: 2010 John Chambers <jc:trillian.mit.edu>
B: Longman ed. "Twenty Four Country Dances", p.33 London 1770
K: Bb
   F | BdB fdB | ecA B2c | dcB edc | fed c2  :|
|: E | DFB EGc | FBd Gce | dfB edc | BFD B,2 :|


%%sep 5 1 500

